; generated by Slic3r 1.1.7 on 2015-09-02 at 18:02:06

; perimeters extrusion width = 0.40mm
; infill extrusion width = 0.42mm
; solid infill extrusion width = 0.42mm
; top infill extrusion width = 0.42mm

G21 ; set units to millimeters
M190 S65 ; wait for bed temperature to be reached
M104 S205 ; set temperature
G28 ; home all axes
G29;  Auto leveling command
G1 Z5 F5000 ; lift nozzle

M109 S205 ; wait for temperature to be reached
G90 ; use absolute coordinates
G92 E0
M82 ; use absolute distances for extrusion
G1 F1800.000 E-1.00000
G92 E0
G1 Z0.300 F6000.000
G1 X52.236 Y68.445 F6000.000
G1 E1.00000 F1800.000
G1 X52.894 Y67.976 E1.05616 F1440.000
G1 X53.545 Y67.568 E1.10952
G1 X54.457 Y67.082 E1.18133
G1 X55.142 Y66.773 E1.23357
G1 X55.725 Y66.547 E1.27702
G1 X56.538 Y66.281 E1.33642
G1 X57.657 Y66.007 E1.41647
G1 X58.270 Y65.902 E1.45969
G1 X58.969 Y65.815 E1.50866
G1 X60.131 Y65.755 E1.58947
G1 X70.171 Y65.761 E2.28706
G1 X70.890 Y65.802 E2.33712 F1440.000
G1 X71.924 Y65.933 E2.40956
G1 X72.721 Y66.088 E2.46592
G1 X73.683 Y66.347 E2.53520
G1 X74.714 Y66.714 E2.61119
G1 X75.405 Y67.016 E2.66360
G1 X76.288 Y67.473 E2.73269
G1 X76.976 Y67.891 E2.78860
G1 X77.640 Y68.351 E2.84475
G1 X78.166 Y68.761 E2.89108
G1 X85.893 Y75.253 E3.59231
G1 X86.422 Y75.753 E3.64290
G1 X86.880 Y76.233 E3.68897
G1 X87.353 Y76.788 E3.73965
G1 X87.759 Y77.316 E3.78596
G1 X88.215 Y77.981 E3.84200
G1 X88.459 Y78.378 E3.87435
G1 X88.784 Y78.957 E3.92049
G1 X89.078 Y79.553 E3.96663
G1 X89.494 Y80.560 E4.04238
G1 X89.732 Y81.270 E4.09439
G1 X89.917 Y81.939 E4.14261
G1 X90.112 Y82.869 E4.20866
G1 X91.811 Y92.527 E4.88999
G1 X91.898 Y93.240 E4.93993
G1 X91.952 Y94.048 E4.99618
G1 X91.958 Y94.755 E5.04531
G1 X91.924 Y95.466 E5.09473
G1 X91.855 Y96.169 E5.14382
G1 X91.766 Y96.754 E5.18495
G1 X91.648 Y97.362 E5.22796
G1 X91.485 Y98.014 E5.27469
G1 X91.276 Y98.699 E5.32445
G1 X91.019 Y99.404 E5.37661
G1 X90.738 Y100.057 E5.42598
G1 X90.423 Y100.695 E5.47543
G1 X85.213 Y109.723 E6.19962
G1 X84.848 Y110.281 E6.24595
G1 X84.371 Y110.930 E6.30194
G1 X83.659 Y111.765 E6.37822
G1 X82.929 Y112.491 E6.44973
G1 X82.388 Y112.963 E6.49960
G1 X71.318 Y121.897 E7.48799
G1 X69.172 Y123.118 E7.65956
G1 X66.501 Y123.598 E7.84812
G1 X63.501 Y123.598 E8.05657
G1 X61.064 Y123.200 E8.22813
G1 X58.684 Y121.897 E8.41666
G1 X47.733 Y113.062 E9.39436
G1 X47.184 Y112.594 E9.44449
G1 X46.398 Y111.824 E9.52093
G1 X45.676 Y110.989 E9.59763
G1 X45.158 Y110.289 E9.65808
G1 X44.632 Y109.466 E9.72596
G1 X39.650 Y100.829 E10.41878
G1 X39.328 Y100.197 E10.46804
G1 X39.039 Y99.547 E10.51750
G1 X38.727 Y98.708 E10.57966
G1 X38.465 Y97.828 E10.64346
G1 X38.284 Y97.030 E10.70035
G1 X38.165 Y96.321 E10.75031
G1 X38.062 Y95.265 E10.82397
G1 X38.048 Y94.060 E10.90776
G1 X38.088 Y93.393 E10.95417
G1 X38.167 Y92.677 E11.00421
G1 X39.949 Y82.546 E11.71895
G1 X40.131 Y81.751 E11.77564
G1 X40.333 Y81.060 E11.82562
G1 X40.637 Y80.220 E11.88772
G1 X41.018 Y79.351 E11.95361
G1 X41.364 Y78.684 E12.00587
G1 X41.703 Y78.112 E12.05204
G1 X41.986 Y77.676 E12.08812
G1 X42.370 Y77.140 E12.13398
G1 X43.018 Y76.347 E12.20514
G1 X43.831 Y75.506 E12.28640
G1 X44.346 Y75.044 E12.33444
G1 X51.716 Y68.859 E13.00297
G1 X52.188 Y68.481 E13.04499
G1 X52.571 Y68.890 F6000.000
G1 X53.200 Y68.441 E13.09862 F1440.000
G1 X53.823 Y68.051 E13.14971
G1 X54.697 Y67.584 E13.21857
G1 X55.353 Y67.289 E13.26855
G1 X55.915 Y67.071 E13.31041
G1 X56.690 Y66.817 E13.36709
G1 X57.759 Y66.555 E13.44359
G1 X58.350 Y66.453 E13.48523
G1 X59.021 Y66.370 E13.53218
G1 X60.131 Y66.312 E13.60945
G1 X70.149 Y66.317 E14.30551
G1 X70.839 Y66.357 E14.35354 F1440.000
G1 X71.830 Y66.482 E14.42297
G1 X72.591 Y66.630 E14.47679
G1 X73.516 Y66.878 E14.54336
G1 X74.503 Y67.230 E14.61616
G1 X75.165 Y67.518 E14.66631
G1 X76.013 Y67.958 E14.73270
G1 X76.670 Y68.356 E14.78610
G1 X77.305 Y68.796 E14.83972
G1 X77.810 Y69.189 E14.88423
G1 X85.518 Y75.664 E15.58366
G1 X86.025 Y76.143 E15.63213
G1 X86.465 Y76.604 E15.67640
G1 X86.918 Y77.136 E15.72494
G1 X87.309 Y77.643 E15.76944
G1 X87.744 Y78.279 E15.82296
G1 X88.075 Y78.824 E15.86731
G1 X88.414 Y79.459 E15.91732
G1 X88.631 Y79.915 E15.95236
G1 X88.875 Y80.495 E15.99612
G1 X89.134 Y81.224 E16.04982
G1 X89.291 Y81.748 E16.08785
G1 X89.475 Y82.505 E16.14197
G1 X91.280 Y92.747 E16.86458
G1 X91.343 Y93.291 E16.90268
G1 X91.395 Y94.063 E16.95639
G1 X91.401 Y94.741 E17.00350
G1 X91.369 Y95.422 E17.05088
G1 X91.302 Y96.096 E17.09796
G1 X91.217 Y96.660 E17.13759
G1 X91.103 Y97.245 E17.17902
G1 X90.949 Y97.862 E17.22319
G1 X90.749 Y98.519 E17.27088
G1 X90.503 Y99.194 E17.32081
G1 X90.114 Y100.071 E17.38744
G1 X89.678 Y100.890 E17.45194
G1 X84.742 Y109.425 E18.13703
G1 X84.228 Y110.193 E18.20119
G1 X83.936 Y110.582 E18.23501
G1 X83.483 Y111.128 E18.28434
G1 X82.813 Y111.833 E18.35189
G1 X82.036 Y112.531 E18.42450
G1 X70.968 Y121.463 E19.41266
G1 X68.895 Y122.626 E19.57783
G1 X66.501 Y123.041 E19.74665
G1 X63.501 Y123.041 E19.95509
G1 X61.157 Y122.643 E20.12027
G1 X59.034 Y121.463 E20.28904
G1 X48.085 Y112.630 E21.26651
G1 X47.559 Y112.182 E21.31456
G1 X46.806 Y111.445 E21.38776
G1 X46.114 Y110.645 E21.46121
G1 X45.615 Y109.970 E21.51954
G1 X45.114 Y109.188 E21.58409
G1 X40.140 Y100.565 E22.27573
G1 X39.832 Y99.960 E22.32295
G1 X39.555 Y99.336 E22.37037
G1 X39.254 Y98.528 E22.43028
G1 X39.004 Y97.690 E22.49106
G1 X38.832 Y96.927 E22.54536
G1 X38.718 Y96.248 E22.59324
G1 X38.619 Y95.236 E22.66387
G1 X38.605 Y94.074 E22.74461
G1 X38.643 Y93.444 E22.78848
G1 X38.718 Y92.758 E22.83644
G1 X40.495 Y82.655 E23.54918
G1 X40.669 Y81.896 E23.60329
G1 X40.863 Y81.234 E23.65119
G1 X41.155 Y80.424 E23.71104
G1 X41.518 Y79.597 E23.77376
G1 X41.849 Y78.958 E23.82377
G1 X42.174 Y78.409 E23.86813
G1 X42.448 Y77.987 E23.90308
G1 X42.812 Y77.480 E23.94644
G1 X43.433 Y76.718 E24.01476
G1 X44.210 Y75.914 E24.09244
G1 X44.704 Y75.471 E24.13854
G1 X52.072 Y69.287 E24.80687
G1 X52.524 Y68.926 E24.84709
G1 X52.907 Y69.334 F6000.000
G1 X53.506 Y68.907 E24.89818 F1440.000
G1 X54.101 Y68.534 E24.94700
G1 X54.938 Y68.087 E25.01292
G1 X55.564 Y67.804 E25.06065
G1 X56.104 Y67.595 E25.10090
G1 X56.842 Y67.353 E25.15487
G1 X57.862 Y67.103 E25.22783
G1 X58.430 Y67.005 E25.26787
G1 X59.072 Y66.925 E25.31282
G1 X60.131 Y66.869 E25.38653
G1 X70.127 Y66.874 E26.08107
G1 X70.788 Y66.912 E26.12706 F1440.000
G1 X71.737 Y67.031 E26.19350
G1 X72.461 Y67.171 E26.24477
G1 X73.349 Y67.410 E26.30864
G1 X74.292 Y67.746 E26.37823
G1 X74.924 Y68.021 E26.42613
G1 X75.738 Y68.443 E26.48981
G1 X76.365 Y68.822 E26.54071
G1 X76.969 Y69.241 E26.59180
G1 X77.454 Y69.618 E26.63449
G1 X85.142 Y76.076 E27.33212
G1 X85.627 Y76.534 E27.37847
G1 X86.049 Y76.976 E27.42094
G1 X86.483 Y77.484 E27.46735
G1 X86.942 Y78.086 E27.51995
G1 X87.273 Y78.576 E27.56103
G1 X87.591 Y79.099 E27.60356
G1 X87.915 Y79.705 E27.65134
G1 X88.205 Y80.330 E27.69918
G1 X88.605 Y81.397 E27.77838
G1 X88.753 Y81.893 E27.81434
G1 X88.929 Y82.614 E27.86588
G1 X90.709 Y92.688 E28.57673
G1 X90.788 Y93.343 E28.62251
G1 X90.838 Y94.077 E28.67368
G1 X90.844 Y94.726 E28.71877
G1 X90.814 Y95.378 E28.76410
G1 X90.750 Y96.023 E28.80917
G1 X90.668 Y96.566 E28.84730
G1 X90.558 Y97.129 E28.88715
G1 X90.413 Y97.710 E28.92876
G1 X90.222 Y98.338 E28.97439
G1 X89.987 Y98.983 E29.02207
G1 X89.615 Y99.824 E29.08599
G1 X89.195 Y100.611 E29.14795
G1 X84.271 Y109.128 E29.83152
G1 X83.778 Y109.866 E29.89316
G1 X83.501 Y110.234 E29.92517
G1 X83.061 Y110.765 E29.97308
G1 X82.426 Y111.432 E30.03706
G1 X81.683 Y112.100 E30.10649
G1 X70.619 Y121.029 E31.09441
G1 X68.621 Y122.131 E31.25294
G1 X66.501 Y122.484 E31.40225
G1 X63.501 Y122.484 E31.61069
G1 X61.254 Y122.087 E31.76922
G1 X59.384 Y121.030 E31.91849
G1 X48.437 Y112.199 E32.89573
G1 X47.934 Y111.770 E32.94168
G1 X47.214 Y111.066 E33.01165
G1 X46.553 Y110.301 E33.08185
G1 X46.072 Y109.652 E33.13806
G1 X45.597 Y108.909 E33.19929
G1 X40.631 Y100.302 E33.88974
G1 X40.336 Y99.722 E33.93493
G1 X40.071 Y99.125 E33.98031
G1 X39.781 Y98.348 E34.03797
G1 X39.544 Y97.551 E34.09571
G1 X39.379 Y96.825 E34.14743
G1 X39.270 Y96.175 E34.19323
G1 X39.175 Y95.207 E34.26084
G1 X39.162 Y94.089 E34.33852
G1 X39.198 Y93.495 E34.37986
G1 X39.269 Y92.839 E34.42573
G1 X41.041 Y82.764 E35.13647
G1 X41.207 Y82.041 E35.18801
G1 X41.392 Y81.408 E35.23383
G1 X41.673 Y80.628 E35.29143
G1 X42.017 Y79.844 E35.35097
G1 X42.333 Y79.233 E35.39873
G1 X42.645 Y78.706 E35.44128
G1 X43.253 Y77.820 E35.51594
G1 X43.848 Y77.090 E35.58142
G1 X44.590 Y76.323 E35.65552
G1 X45.062 Y75.897 E35.69969
G1 X52.428 Y69.716 E36.36782
G1 X52.859 Y69.371 E36.40623
G1 F1800.000 E35.40623
G92 E0
G1 X64.989 Y85.023 F6000.000
G1 E1.00000 F1800.000
G1 X64.577 Y85.709 E1.05559 F420.000
G1 X61.653 Y80.211 E1.48830
G1 X61.647 Y79.690 E1.52452
G1 X61.712 Y79.149 E1.56232
G1 X61.823 Y78.702 E1.59432
G1 X62.014 Y78.213 E1.63082
G1 X62.149 Y77.956 E1.65103
G1 X62.348 Y77.656 E1.67599
G1 X62.572 Y77.396 E1.69985
G1 X62.810 Y77.184 E1.72196
G1 X63.090 Y77.001 E1.74520
G1 X63.320 Y76.897 E1.76276
G1 X63.555 Y76.829 E1.77978
G1 X63.742 Y76.801 E1.79293
G1 X63.927 Y76.796 E1.80579
G1 X64.223 Y76.838 E1.82656
G1 X64.406 Y76.892 E1.83982
G1 X64.627 Y76.997 E1.85681
G1 X64.833 Y77.131 E1.87386
G1 X64.984 Y77.259 E1.88763
G1 X65.159 Y77.446 E1.90543
G1 X65.323 Y77.667 E1.92452
G1 X65.539 Y77.418 E1.94745
G1 X65.780 Y77.184 E1.97075
G1 X65.933 Y77.065 E1.98422
G1 X66.211 Y76.901 E2.00667
G1 X66.445 Y76.809 E2.02412
G1 X66.686 Y76.753 E2.04134
G1 X66.931 Y76.736 E2.05838
G1 X67.231 Y76.768 E2.07932
G1 X67.576 Y76.886 E2.10466
G1 X67.893 Y77.081 E2.13054
G1 X68.175 Y77.355 E2.15786
G1 X68.442 Y77.734 E2.19008
G1 X68.566 Y77.983 E2.20941
G1 X68.667 Y78.248 E2.22908
G1 X68.804 Y78.825 E2.27029
G1 X68.843 Y79.199 E2.29641
G1 X68.847 Y79.504 E2.31762
G1 X68.789 Y80.104 E2.35948
G1 X65.349 Y85.683 E2.81490
G1 X65.018 Y85.076 E2.86296
G1 X64.912 Y85.416 F6000.000
G1 F1800.000 E1.86296
G92 E0
G1 X79.426 Y92.415 F6000.000
G1 E1.00000 F1800.000
G1 X79.763 Y92.716 E1.03140 F420.000
G1 X80.020 Y93.018 E1.05895
G1 X80.208 Y93.349 E1.08541
G1 X80.320 Y93.664 E1.10862
G1 X80.364 Y93.664 E1.11163
G1 X80.344 Y94.133 E1.14426
G1 X80.317 Y94.315 E1.15707
G1 X80.247 Y94.551 E1.17419
G1 X80.140 Y94.774 E1.19139
G1 X79.962 Y95.028 E1.21286
G1 X79.685 Y95.300 E1.23988
G1 X79.413 Y95.489 E1.26288
G1 X79.100 Y95.652 E1.28740
G1 X78.766 Y95.775 E1.31217
G1 X78.333 Y95.878 E1.34306
G1 X77.960 Y95.923 E1.36914
G1 X77.500 Y95.930 E1.40110
G1 X76.978 Y95.872 E1.43765
G1 X70.718 Y92.013 E1.94859
G1 X76.874 Y88.738 E2.43306
G1 X77.400 Y88.732 E2.46958
G1 X77.861 Y88.784 E2.50184
G1 X78.313 Y88.886 E2.53403
G1 X78.664 Y89.009 E2.55986
G1 X79.004 Y89.165 E2.58589
G1 X79.312 Y89.350 E2.61080
G1 X79.586 Y89.561 E2.63485
G1 X79.826 Y89.804 E2.65858
G1 X80.051 Y90.116 E2.68533
G1 X80.190 Y90.410 E2.70790
G1 X80.267 Y90.706 E2.72914
G1 X80.289 Y91.012 E2.75051
G1 X80.247 Y91.311 E2.77142
G1 X80.146 Y91.599 E2.79264
G1 X79.988 Y91.869 E2.81440
G1 X79.737 Y92.158 E2.84101
G1 X79.473 Y92.377 E2.86484
G1 X79.813 Y92.516 F6000.000
G1 F1800.000 E1.86484
G92 E0
G1 X64.677 Y108.503 F6000.000
G1 E1.00000 F1800.000
G1 X64.412 Y108.804 E1.02785 F420.000
G1 X64.167 Y109.029 E1.05094
G1 X63.848 Y109.239 E1.07750
G1 X63.613 Y109.342 E1.09529
G1 X63.320 Y109.416 E1.11635
G1 X62.953 Y109.429 E1.14186
G1 X62.653 Y109.372 E1.16305
G1 X62.366 Y109.255 E1.18459
G1 X62.057 Y109.047 E1.21045
G1 X61.868 Y108.865 E1.22869
G1 X61.664 Y108.604 E1.25173
G1 X61.465 Y108.255 E1.27967
G1 X61.310 Y107.849 E1.30986
G1 X61.207 Y107.422 E1.34033
G1 X61.162 Y107.045 E1.36671
G1 X61.155 Y106.586 E1.39866
G1 X61.211 Y106.066 E1.43495
G1 X65.072 Y99.803 E1.94618
G1 X68.347 Y105.959 E2.43066
G1 X68.353 Y106.485 E2.46717
G1 X68.313 Y106.870 E2.49407
G1 X68.218 Y107.325 E2.52638
G1 X68.102 Y107.685 E2.55266
G1 X67.921 Y108.088 E2.58335
G1 X67.696 Y108.454 E2.61322
G1 X67.474 Y108.725 E2.63750
G1 X67.181 Y108.993 E2.66512
G1 X66.912 Y109.169 E2.68745
G1 X66.559 Y109.313 E2.71394
G1 X66.274 Y109.367 E2.73414
G1 X65.952 Y109.364 E2.75651
G1 X65.719 Y109.318 E2.77303
G1 X65.428 Y109.203 E2.79471
G1 X65.211 Y109.071 E2.81239
G1 X64.932 Y108.825 E2.83826
G1 X64.713 Y108.552 E2.86258
G1 X64.574 Y108.890 F6000.000
G1 F1800.000 E1.86258
G92 E0
G1 X60.472 Y104.528 F6000.000
G1 E1.00000 F1800.000
G1 X58.378 Y106.189 E1.18569 F600.000
G1 X58.079 Y106.374 E1.21012
G1 X57.779 Y106.527 E1.23351
G1 X57.466 Y106.658 E1.25708
G1 X57.130 Y106.765 E1.28164
G1 X56.687 Y106.859 E1.31309
G1 X56.350 Y106.899 E1.33667
G1 X55.894 Y106.907 E1.36834
G1 X55.433 Y106.864 E1.40053
G1 X54.985 Y106.774 E1.43226
G1 X54.551 Y106.634 E1.46397
G1 X54.239 Y106.498 E1.48761
G1 X53.844 Y106.280 E1.51895
G1 X53.468 Y106.016 E1.55086
G1 X53.037 Y105.623 E1.59139
G1 X52.746 Y105.281 E1.62262
G1 X52.486 Y104.900 E1.65464
G1 X52.274 Y104.496 E1.68632
G1 X52.072 Y103.967 E1.72572
G1 X51.942 Y103.402 E1.76594
G1 X51.898 Y102.949 E1.79756
G1 X51.902 Y102.494 E1.82920
G1 X51.955 Y102.043 E1.86078
G1 X52.061 Y101.593 E1.89286
G1 X52.171 Y101.268 E1.91674
G1 X52.361 Y100.849 E1.94867
G1 X53.492 Y98.712 E2.11665
G1 X50.856 Y98.632 E2.29987
G1 X50.519 Y98.583 E2.32354
G1 X50.182 Y98.507 E2.34754
G1 X49.643 Y98.319 E2.38722
G1 X49.230 Y98.114 E2.41925
G1 X48.942 Y97.935 E2.44279
G1 X48.667 Y97.731 E2.46657
G1 X48.414 Y97.512 E2.48983
G1 X48.093 Y97.169 E2.52250
G1 X47.890 Y96.904 E2.54569
G1 X47.701 Y96.612 E2.56982
G1 X47.491 Y96.206 E2.60161
G1 X47.365 Y95.891 E2.62519
G1 X47.263 Y95.560 E2.64926
G1 X47.189 Y95.223 E2.67321
G1 X47.143 Y94.885 E2.69689
G1 X47.125 Y94.547 E2.72044
G1 X47.137 Y94.207 E2.74408
G1 X47.176 Y93.862 E2.76820
G1 X47.242 Y93.529 E2.79178
G1 X47.340 Y93.190 E2.81627
G1 X47.462 Y92.870 E2.84012
G1 X47.609 Y92.564 E2.86370
G1 X47.785 Y92.263 E2.88791
G1 X47.976 Y91.990 E2.91109
G1 X48.203 Y91.717 E2.93572
G1 X48.726 Y91.215 E2.98607
G1 X49.034 Y91.741 E3.02839
G1 X48.800 Y92.202 E3.06435
G1 X48.668 Y92.605 E3.09380
G1 X48.603 Y93.036 E3.12410
G1 X48.604 Y93.434 E3.15177
G1 X48.650 Y93.746 E3.17362
G1 X48.786 Y94.201 E3.20664
G1 X48.941 Y94.534 E3.23215
G1 X49.133 Y94.843 E3.25746
G1 X49.391 Y95.165 E3.28611
G1 X49.680 Y95.447 E3.31418
G1 X50.062 Y95.741 E3.34767
G1 X50.471 Y95.987 E3.38082
G1 X50.931 Y96.199 E3.41600
G1 X51.371 Y96.352 E3.44837
G1 X51.860 Y96.468 E3.48333
G1 X52.356 Y96.538 E3.51812
G1 X52.831 Y96.559 E3.55116
G1 X53.433 Y96.530 E3.59305
G1 X61.520 Y92.228 E4.22949
G1 X53.404 Y87.224 E4.89198
G1 X52.838 Y87.148 E4.93170
G1 X52.454 Y87.124 E4.95839
G1 X51.960 Y87.135 E4.99271
G1 X51.490 Y87.192 E5.02565
G1 X51.091 Y87.278 E5.05402
G1 X50.631 Y87.425 E5.08756
G1 X50.191 Y87.625 E5.12111
G1 X49.807 Y87.849 E5.15201
G1 X49.589 Y87.576 E5.17633
G1 X49.339 Y87.191 E5.20821
G1 X49.130 Y86.781 E5.24018
G1 X49.006 Y86.463 E5.26391
G1 X48.882 Y86.021 E5.29577
G1 X48.822 Y85.688 E5.31929
G1 X48.787 Y85.341 E5.34354
G1 X48.787 Y84.893 E5.37466
G1 X48.820 Y84.547 E5.39879
G1 X48.882 Y84.206 E5.42291
G1 X49.006 Y83.771 E5.45433
G1 X49.133 Y83.444 E5.47874
G1 X49.281 Y83.141 E5.50217
G1 X49.523 Y82.750 E5.53409
G1 X49.806 Y82.386 E5.56616
G1 X50.037 Y82.142 E5.58948
G1 X50.289 Y81.918 E5.61287
G1 X50.565 Y81.708 E5.63698
G1 X50.851 Y81.526 E5.66053
G1 X51.266 Y81.317 E5.69287
G1 X51.685 Y81.158 E5.72397
G1 X52.030 Y81.067 E5.74875
G1 X52.363 Y81.007 E5.77224
G1 X52.701 Y80.974 E5.79585
G1 X53.048 Y80.970 E5.82000
G1 X53.389 Y80.994 E5.84370
G1 X53.958 Y81.099 E5.88395
G1 X56.466 Y81.883 E6.06649
G1 X56.107 Y79.414 E6.23982
G1 X56.085 Y78.949 E6.27215
G1 X56.103 Y78.611 E6.29571
G1 X56.194 Y78.047 E6.33535
G1 X56.361 Y77.500 E6.37515
G1 X56.497 Y77.188 E6.39879
G1 X56.659 Y76.884 E6.42272
G1 X56.984 Y76.410 E6.46264
G1 X57.368 Y75.989 E6.50223
G1 X57.619 Y75.766 E6.52553
G1 X57.898 Y75.559 E6.54971
G1 X58.186 Y75.380 E6.57327
G1 X58.496 Y75.221 E6.59751
G1 X58.819 Y75.089 E6.62173
G1 X59.138 Y74.987 E6.64497
G1 X59.466 Y74.912 E6.66837
G1 X59.821 Y74.861 E6.69329
G1 X60.383 Y74.843 E6.73239
G1 X60.731 Y74.870 E6.75660
G1 X61.065 Y74.925 E6.78011
G1 X61.391 Y75.005 E6.80348
G1 X61.725 Y75.118 E6.82796
G1 X62.034 Y75.251 E6.85130
